X: 4
T: The Girl Who Broke My Heart
R: reel
M: 4/4
L: 1/8
K: Amix
|:ed|cAGA E~D3 |EAAG ABcd|efge dBAG|1,3 EGGF G2:|2,4 EAAG A2 |]
|:zE|A2ce aecA|G2Bd gdBG|A2ce aece|dcde dBGB|
A2ce aecA|G2Bd gdBG|ABce dBAG|EAAG A2:|


Tune 669	Setting 13709

